assets/search-engines/brave.svg

<?xml version="1.0" encoding="UTF-8"?>
<svg width="218px" height="256px" viewBox="0 0 218 256" version="1.1" xmlns="http://www.w3.org/2000/svg" xmlns:xlink="http://www.w3.org/1999/xlink">
    <!-- Generator: Sketch 51.2 (57519) - http://www.bohemiancoding.com/sketch -->
    <title>build-icons/Stable Copy 3</title>
    <desc>Created with Sketch.</desc>
    <defs>
        <linearGradient x1="0%" y1="50.7055163%" x2="100%" y2="50.7055163%" id="linearGradient-1">
            <stop stop-color="#FF5500" offset="0%"></stop>
            <stop stop-color="#FF5500" offset="40.9877232%"></stop>
            <stop stop-color="#FF2000" offset="58.1981215%"></stop>
            <stop stop-color="#FF2000" offset="100%"></stop>
        </linearGradient>
        <linearGradient x1="2.1484375%" y1="50.7055163%" x2="100%" y2="50.7055163%" id="linearGradient-2">
            <stop stop-color="#FF452A" offset="0%"></stop>
            <stop stop-color="#FF2000" offset="100%"></stop>
        </linearGradient>
        <path d="M170.272109,25.3359387 L147.968109,0.00010893617 L108.800109,0.00010893617 L69.6321088,0.00010893617 L47.3281088,25.3359387 C47.3281088,25.3359387 27.7441088,19.8891302 18.4961088,29.1487047 C18.4961088,29.1487047 44.6081088,26.7886026 53.5841088,41.4040238 C53.5841088,41.4040238 77.7921088,46.0338111 81.0561088,46.0338111 C84.3201088,46.0338111 91.3921088,43.3104068 97.9201088,41.1316834 C104.448109,38.95296 108.800109,38.9371643 108.800109,38.9371643 C108.800109,38.9371643 113.152109,38.95296 119.680109,41.1316834 C126.208109,43.3104068 133.280109,46.0338111 136.544109,46.0338111 C139.808109,46.0338111 164.016109,41.4040238 164.016109,41.4040238 C172.992109,26.7886026 199.104109,29.1487047 199.104109,29.1487047 C189.856109,19.8891302 170.272109,25.3359387 170.272109,25.3359387" id="path-3"></path>
    </defs>
    <g id="starting-collection" stroke="none" stroke-width="1" fill="none" fill-rule="evenodd">
        <g id="Build-Icons" transform="translate(-70.000000, -350.000000)">
            <g id="build-icons/Stable" transform="translate(50.000000, 350.000000)">
                <g id="Logo" transform="translate(20.114286, 0.000000)">
                    <path d="M209.984109,61.2848749 L215.968109,46.5784919 C215.968109,46.5784919 208.352109,38.4082791 199.104109,29.1487047 C189.856109,19.8891302 170.272109,25.3359387 170.272109,25.3359387 L147.968109,0.00010893617 L108.800109,0.00010893617 L69.6321088,0.00010893617 L47.3281088,25.3359387 C47.3281088,25.3359387 27.7441088,19.8891302 18.4961088,29.1487047 C9.2481088,38.4082791 1.6321088,46.5784919 1.6321088,46.5784919 L7.6161088,61.2848749 L0.0001088,83.0721089 C0.0001088,83.0721089 22.3993088,168.017811 25.0241088,178.391258 C30.1921088,198.81679 33.7281088,206.714662 48.4161088,217.063598 C63.1041088,227.412534 89.7601088,245.387003 94.1121088,248.110407 C98.4641088,250.833811 103.904109,255.472858 108.800109,255.472858 C113.696109,255.472858 119.136109,250.833811 123.488109,248.110407 C127.840109,245.387003 154.496109,227.412534 169.184109,217.063598 C183.872109,206.714662 187.408109,198.81679 192.576109,178.391258 C195.200365,168.017811 217.600109,83.0721089 217.600109,83.0721089 L209.984109,61.2848749 Z" id="Head" fill="url(#linearGradient-1)"></path>
                    <path d="M164.016109,41.4040238 C164.016109,41.4040238 192.704493,76.1274281 192.704493,83.5487047 C192.704493,90.9699813 189.095597,92.9286536 185.467117,96.7866281 C181.838637,100.644603 165.991373,117.49376 163.956269,119.657232 C161.921165,121.821249 157.684493,125.101862 160.176557,131.006747 C162.668621,136.911632 166.344973,144.425505 162.256813,152.046679 C158.168109,159.667854 151.164109,164.754628 146.676109,163.913641 C142.188109,163.072109 131.648109,157.557215 127.772109,155.038066 C123.896109,152.518917 111.611501,142.374781 111.611501,138.493386 C111.611501,134.612534 124.310093,127.643888 126.655821,126.0605 C129.002637,124.477658 139.703117,118.349454 139.922349,115.944143 C140.141037,113.538288 140.057805,112.832926 136.899885,106.889369 C133.741965,100.945266 128.054989,93.0136238 129.001549,87.7362111 C129.948109,82.459343 139.119949,79.7152409 145.665357,77.2402111 C152.209677,74.765726 164.811437,70.0918196 166.385229,69.3652153 C167.960109,68.6380664 167.553197,67.945777 162.783949,67.4931472 C158.015789,67.0405174 144.483245,65.2419813 138.382285,66.9446536 C132.281325,68.647326 121.858285,71.2378281 121.013997,72.6115132 C120.169709,73.9851983 119.424973,74.0314962 120.292109,78.7702196 C121.158701,83.508943 125.622765,106.24719 126.055789,110.285998 C126.489357,114.324807 127.336909,116.994832 122.987629,117.990509 C118.637805,118.986186 111.316109,120.715003 108.800109,120.715003 C106.284109,120.715003 98.9618688,118.986186 94.6125888,117.990509 C90.2627648,116.994832 91.1103168,114.324807 91.5438848,110.285998 C91.9774528,106.24719 96.4409728,83.508943 97.3081088,78.7702196 C98.1747008,74.0314962 97.4299648,73.9851983 96.5862208,72.6115132 C95.7419328,71.2378281 85.3183488,68.647326 79.2173888,66.9446536 C73.1164288,65.2419813 59.5844288,67.0405174 54.8157248,67.4931472 C50.0470208,67.945777 49.6401088,68.6380664 51.2144448,69.3652153 C52.7887808,70.0918196 65.3905408,74.765726 71.9348608,77.2402111 C78.4797248,79.7152409 87.6521088,82.459343 88.5986688,87.7362111 C89.5452288,93.0136238 83.8577088,100.945266 80.7003328,106.889369 C77.5424128,112.832926 77.4586368,113.538288 77.6778688,115.944143 C77.8965568,118.349454 88.5975808,124.477658 90.9438528,126.0605 C93.2901248,127.643888 105.988173,134.612534 105.988173,138.493386 C105.988173,142.374781 93.7041088,152.518917 89.8281088,155.038066 C85.9521088,157.557215 75.4121088,163.072109 70.9241088,163.913641 C66.4361088,164.754628 59.4321088,159.667854 55.3434048,152.046679 C51.2552448,144.425505 54.9315968,136.911632 57.4231168,131.006747 C59.9151808,125.101862 55.6790528,121.821249 53.6434048,119.657232 C51.6088448,117.49376 35.7610368,100.644603 32.1325568,96.7866281 C28.5040768,92.9286536 24.8957248,90.9699813 24.8957248,83.5487047 C24.8957248,76.1274281 53.5841088,41.4040238 53.5841088,41.4040238 C53.5841088,41.4040238 77.7921088,46.0338111 81.0561088,46.0338111 C84.3201088,46.0338111 91.3921088,43.3104068 97.9201088,41.1316834 C104.448109,38.95296 108.800109,38.9371643 108.800109,38.9371643 C108.800109,38.9371643 113.152109,38.95296 119.680109,41.1316834 C126.208109,43.3104068 133.280109,46.0338111 136.544109,46.0338111 C139.808109,46.0338111 164.016109,41.4040238 164.016109,41.4040238 Z M142.509504,174.227935 C144.28512,175.341263 143.202016,177.439918 141.584704,178.584837 C139.966848,179.729757 118.228064,196.584361 116.118432,198.447169 C114.008256,200.310523 110.908,203.387425 108.8,203.387425 C106.692,203.387425 103.5912,200.310523 101.481568,198.447169 C99.371392,196.584361 77.633152,179.729757 76.015296,178.584837 C74.39744,177.439918 73.31488,175.341263 75.090496,174.227935 C76.866656,173.115152 82.422528,170.306233 90.08912,166.333876 C97.754624,162.362063 107.308896,158.985042 108.8,158.985042 C110.291104,158.985042 119.844832,162.362063 127.511424,166.333876 C135.177472,170.306233 140.733344,173.115152 142.509504,174.227935 Z" id="Face" fill="#FFFFFF"></path>
                    <mask id="mask-4" fill="white">
                        <use xlink:href="#path-3"></use>
                    </mask>
                    <use id="Top-Head" fill="url(#linearGradient-2)" xlink:href="#path-3"></use>
                </g>
            </g>
        </g>
    </g>
</svg>

<svg width="218" height="256" viewBox="0 0 218 256" xmlns="http://www.w3.org/2000/svg" xmlns:xlink="http://www.w3.org/1999/xlink"><title>build-icons/Stable Copy 3</title><defs><linearGradient x1="0%" y1="50.706%" x2="100%" y2="50.706%" id="a"><stop stop-color="#f50" offset="0%"/><stop stop-color="#f50" offset="40.988%"/><stop stop-color="#ff2000" offset="58.198%"/><stop stop-color="#ff2000" offset="100%"/></linearGradient><linearGradient x1="2.148%" y1="50.706%" x2="100%" y2="50.706%" id="b"><stop stop-color="#ff452a" offset="0%"/><stop stop-color="#ff2000" offset="100%"/></linearGradient><path d="M170.272 25.336 147.968 0H69.632L47.328 25.336s-19.584-5.447-28.832 3.813c0 0 26.112-2.36 35.088 12.255 0 0 24.208 4.63 27.472 4.63s10.336-2.724 16.864-4.902 10.88-2.195 10.88-2.195 4.352.016 10.88 2.195 13.6 4.902 16.864 4.902 27.472-4.63 27.472-4.63c8.976-14.615 35.088-12.255 35.088-12.255-9.248-9.26-28.832-3.813-28.832-3.813" id="c"/></defs><g transform="translate(.114)" fill="none" fill-rule="evenodd"><path d="m209.984 61.285 5.984-14.707s-7.616-8.17-16.864-17.43-28.832-3.812-28.832-3.812L147.968 0H69.632L47.328 25.336s-19.584-5.447-28.832 3.813-16.864 17.43-16.864 17.43l5.984 14.706L0 83.072s22.4 84.946 25.024 95.32c5.168 20.425 8.704 28.323 23.392 38.672s41.344 28.323 45.696 31.046c4.352 2.724 9.792 7.363 14.688 7.363s10.336-4.64 14.688-7.363 31.008-20.697 45.696-31.046 18.224-18.247 23.392-38.673C195.2 168.018 217.6 83.072 217.6 83.072z" fill="url(#a)"/><path d="M164.016 41.404s28.688 34.723 28.688 42.145c0 7.421-3.608 9.38-7.237 13.238l-21.51 22.87c-2.036 2.164-6.273 5.445-3.78 11.35s6.168 13.419 2.08 21.04c-4.089 7.62-11.093 12.708-15.58 11.867-4.489-.842-15.029-6.357-18.905-8.876-3.876-2.52-16.16-12.663-16.16-16.545 0-3.88 12.698-10.85 15.044-12.432s13.047-7.712 13.266-10.117.136-3.111-3.022-9.055-8.845-13.875-7.898-19.153c.946-5.277 10.118-8.02 16.663-10.496 6.545-2.474 19.146-7.148 20.72-7.875 1.575-.727 1.168-1.42-3.601-1.872-4.768-.452-18.3-2.251-24.402-.548-6.1 1.702-16.524 4.293-17.368 5.667s-1.589 1.42-.722 6.158 5.33 27.477 5.764 31.516c.433 4.039 1.28 6.709-3.068 7.705-4.35.995-11.672 2.724-14.188 2.724s-9.838-1.729-14.187-2.724-3.503-3.666-3.07-7.705 4.898-26.777 5.765-31.516.122-4.785-.722-6.158-11.268-3.965-17.369-5.667c-6.1-1.703-19.633.096-24.401.548s-5.176 1.145-3.602 1.872 14.177 5.4 20.72 7.875c6.546 2.475 15.718 5.22 16.665 10.496.946 5.278-4.741 13.21-7.899 19.153-3.158 5.944-3.241 6.65-3.022 9.055s10.92 8.534 13.266 10.117 15.044 8.552 15.044 12.432c0 3.882-12.284 14.026-16.16 16.545s-14.416 8.034-18.904 8.876c-4.488.84-11.492-4.246-15.58-11.867-4.089-7.621-.412-15.135 2.08-21.04s-1.745-9.186-3.78-11.35l-21.511-22.87c-3.629-3.858-7.237-5.817-7.237-13.238 0-7.422 28.688-42.145 28.688-42.145s24.208 4.63 27.472 4.63 10.336-2.724 16.864-4.902 10.88-2.195 10.88-2.195 4.352.016 10.88 2.195 13.6 4.902 16.864 4.902 27.472-4.63 27.472-4.63M142.51 174.228c1.775 1.113.692 3.212-.925 4.357-1.618 1.145-23.357 18-25.467 19.862-2.11 1.864-5.21 4.94-7.318 4.94s-5.209-3.076-7.318-4.94c-2.11-1.863-23.849-18.717-25.467-19.862s-2.7-3.244-.925-4.357c1.777-1.113 7.333-3.922 15-7.894 7.665-3.972 17.219-7.349 18.71-7.349s11.045 3.377 18.711 7.349 13.222 6.781 14.999 7.894" fill="#fff"/><use fill="url(#b)" xlink:href="#c"/></g></svg>
